X: 20072
T: CANAAN
C:
%R: march, reel
B: Elias Howe "The Musician's Companion" 1843 p.7 #2
S: http://imslp.org/wiki/The_Musician's_Companion_(Howe,_Elias)
Z: 2015 John Chambers <jc:trillian.mit.edu>
N: The unbeamed B and G in bar 3 are a bit odd, and written normally in bars 7 & 15.
M: C
L: 1/8
K: G
% - - - - - - - - - - - - - - - - - - - - - - - - -
D2 |\
G2B2 A2c2 | BGge d2Bc | d2B G cBA2 | G4- G2[G2D2] |\
G2B2 A2c2 | BGge d2Bc | d2BG cBA2 | G4 G2 :|
|: Bc |\
(d3e) d2B2 | c3d c2AA | B2GB d2B2 | A4 d2dB |\
G2GG A2A2 | BGge d2Bc | d2BG cBA2 | G4 G2 :|
% - - - - - - - - - - - - - - - - - - - - - - - - -

%%sep 1 1 500

